X: 1
T: Unnamed lesnoto
C: John Chambers 1975/5
N: Spur-of-the-mmoment tune for a dance+music workshop with novice musicians.
R: lesnoto
L: 1/8
M: 7/8
K: Am
|: A2G AB c2 | c2B cd e2 |\
   d2c BA BG |1 A2G AB c2 :|2 A2d A3 z :|
|: dee ed ec | cdd dc dB |\
[1 Bcc cB cA | B2A Bc d2 :|\
[2 Bcd cA BG | A2d A3 z :|
|: g2a gf e2 | f2g fe d2 |\
[1 e2f ed cB | c2d ed ef :|\
[2 c2d cA BG | A2d A3 z :|
